X:653
T:Far From Home
C:Joe Buchanan's Scottish Tome - Page 199.1
I:199 1
R:Reel
Z:Carl Allison
S:Irish Trad.
L:1/8
M:4/4
K:G
(BA) | GEEE G2 (GA) | B2 (BA) (Bc) d2 | GEDE G2 (GB) | A2 (AB) AGE-E |
GEDE G2 (GA) | B2 (BA) (Bc) d2 | edef gedc | B(GAF) G2 :|
g3 e f3 d | e2 (ef) (ed) B2 | gedB G2 (GB) | A2 (AB) A(GEF) | 
GEDE G3 G | B2 (BA) (Bc) d2 | edef gedc | B(GAF) G2 |
g3 e f3 d | e2 (ef) (ed) B2 | gedB G2 (GB) | A2 (AB) A(GEE) |
GEDE G3 A | B2 (BA) (Bc) d2 | edef gedc | B(def) g2 :|

